src/svgs/Review.svg

<?xml version="1.0" encoding="UTF-8"?>
<svg width="24px" height="24px" viewBox="0 0 24 24" version="1.1" xmlns="http://www.w3.org/2000/svg" xmlns:xlink="http://www.w3.org/1999/xlink">
    <!-- Generator: Sketch 57.1 (83088) - https://sketch.com -->
    <title>icon / setting / Reviews</title>
    <desc>Created with Sketch.</desc>
    <g id="Symbols" stroke="none" stroke-width="1" fill="none" fill-rule="evenodd">
        <g id="icon-/-setting-/-Reviews" fill="#9EA7AD" fill-rule="nonzero">
            <path d="M20,4 C20.5522847,4 21,4.44771525 21,5 L21,15 C21,15.5522847 20.5522847,16 20,16 L9,16 L4.70710678,20.2928932 C4.31658249,20.6834175 3.68341751,20.6834175 3.29289322,20.2928932 C3.10535684,20.1053568 3,19.8510029 3,19.5857864 L3,5 C3,4.44771525 3.44771525,4 4,4 L20,4 Z M19,6 L5,6 L5,17.1715729 L8.17157288,14 L19,14 L19,6 Z M8,9 C8.55228475,9 9,9.44771525 9,10 C9,10.5522847 8.55228475,11 8,11 C7.44771525,11 7,10.5522847 7,10 C7,9.44771525 7.44771525,9 8,9 Z M12,9 C12.5522847,9 13,9.44771525 13,10 C13,10.5522847 12.5522847,11 12,11 C11.4477153,11 11,10.5522847 11,10 C11,9.44771525 11.4477153,9 12,9 Z M16,9 C16.5522847,9 17,9.44771525 17,10 C17,10.5522847 16.5522847,11 16,11 C15.4477153,11 15,10.5522847 15,10 C15,9.44771525 15.4477153,9 16,9 Z" id="Combined-Shape"></path>
        </g>
    </g>
</svg>

<svg xmlns="http://www.w3.org/2000/svg" width="24" height="24" viewBox="0 0 24 24">
    <path fill="#9EA7AD" fill-rule="nonzero" d="M20 4a1 1 0 0 1 1 1v10a1 1 0 0 1-1 1H9l-4.293 4.293A1 1 0 0 1 3 19.586V5a1 1 0 0 1 1-1h16zm-1 2H5v11.172L8.172 14H19V6zM8 9a1 1 0 1 1 0 2 1 1 0 0 1 0-2zm4 0a1 1 0 1 1 0 2 1 1 0 0 1 0-2zm4 0a1 1 0 1 1 0 2 1 1 0 0 1 0-2z"/>
</svg>
